X:21
T:For ever, Fortune, wilt thou prove. ET.21
M:C
L:1/8
Q:1/4=120
S:Eliza Tennyson MS, Lincolnshire,1822
R:Song
C:Poem by J Thomson, Set by Jackson
N:Untitled in MS
O:England;Lincolnshire;Somersby
Z:vmp.R.Greig 2011 <http://www.village-music-project.org.uk>
K:G
e2|b<ga<fe2c’2|b<g a<fe2g2|g2fe^d2f2|E<GF<AB2B2|!
(gf)(eg)f2b2-“^bar line added”|b2a4g2-|g2 (fe) ^dBe2-|e2^d2e2|!
^D2|E2B2G2c2|(BA) (GF)E2B2|(e<g) (fe)^d2f2|E<G F<AB2zG|!
w:For ev-er For-tune w-ilt th-ou prove An un–re–lent-ing f-oe t-o love &
(d<B) (c<A)G2e2|(e2d) cB2d2|g2(fe)d2>e2|B2A2G2:|!
w:wh-en w-e meet a mu-tu-al heart Come in be–tween and bid us part
|:B2B Bc2zB|A3AB2zB|e2d2c2B2″^bar line added”|(AG) (FE)B2B2|!
w:Bid us sigh on from day to day & wish and wish our s-ouls a–way Till
(gf) (eg)f2B2|(ed) (ce)d2G2|(cB) (Ac)B2EF|G2F2E2:|!
w:Y-outh a-nd gen-ial y-ears a-re flown & a-ll th-e life o-f life is gone
|:B2″^bar line added”|(gf) (eg)f2(bB)|(ed) (ce)d2 (gG)|(cB)(Ac)B2(ba)|g2″tr”f>ee4|]

